dist/img/vk_icon.svg

<svg width="40" height="41" viewBox="0 0 40 41" fill="none" xmlns="http://www.w3.org/2000/svg">
<path d="M40 20.5C40 9.4543 31.0457 0.5 20 0.5C8.9543 0.5 0 9.4543 0 20.5C0 31.5457 8.9543 40.5 20 40.5C31.0457 40.5 40 31.5457 40 20.5Z" fill="#4A76A8"/>
<path fill-rule="evenodd" clip-rule="evenodd" d="M29.377 22.0373C30.239 22.8959 31.1495 23.7039 31.9232 24.6495C32.2644 25.0691 32.5878 25.502 32.8358 25.9894C33.1859 26.6821 32.8685 27.4446 32.2595 27.4861L28.4714 27.4841C27.4944 27.567 26.7147 27.1655 26.0601 26.4849C25.5353 25.9399 25.0493 25.3604 24.5454 24.7981C24.3391 24.5676 24.1229 24.3511 23.864 24.1802C23.3472 23.8374 22.8979 23.9426 22.6023 24.4927C22.3017 25.052 22.2333 25.6709 22.2035 26.2948C22.1629 27.2029 21.8931 27.4426 20.9984 27.4841C19.083 27.5761 17.2658 27.2808 15.5776 26.2958C14.0897 25.4282 12.9352 24.2025 11.9314 22.815C9.97532 20.1129 8.47754 17.1448 7.13153 14.0928C6.828 13.4051 7.05019 13.036 7.79412 13.0228C9.03003 12.9986 10.265 13.0006 11.5019 13.0208C12.0048 13.0289 12.337 13.3222 12.5315 13.8066C13.199 15.4823 14.0173 17.076 15.044 18.5545C15.3177 18.9479 15.5965 19.3413 15.9942 19.6184C16.4326 19.9248 16.7669 19.8237 16.9742 19.3241C17.1051 19.0076 17.1627 18.6678 17.1924 18.329C17.2896 17.163 17.3025 15.999 17.1309 14.8381C17.0258 14.113 16.6251 13.6438 15.9158 13.5072C15.5538 13.4375 15.6074 13.2999 15.7829 13.0886C16.0874 12.7255 16.3741 12.5 16.9445 12.5H21.2255C21.899 12.6345 22.0488 12.9439 22.141 13.6347L22.145 18.4827C22.1381 18.7507 22.2759 19.5445 22.7491 19.7225C23.127 19.8479 23.377 19.5385 23.6041 19.2948C24.6287 18.1854 25.3598 16.8748 26.0134 15.5176C26.3031 14.92 26.553 14.3011 26.7941 13.6822C26.9736 13.2221 27.2543 12.9965 27.7622 13.0056L31.8826 13.0097C32.0046 13.0097 32.1276 13.0117 32.2456 13.0319C32.9409 13.1533 33.1314 13.4577 32.9161 14.1484C32.5789 15.2335 31.9212 16.1365 31.2785 17.0447C30.5921 18.0145 29.8561 18.9499 29.1756 19.9248C28.5488 20.8157 28.5993 21.2647 29.377 22.0373Z" fill="#FFFFFE"/>
</svg>

<svg width="40" height="41" fill="none" xmlns="http://www.w3.org/2000/svg"><path d="M40 20.5c0-11.046-8.954-20-20-20S0 9.454 0 20.5s8.954 20 20 20 20-8.954 20-20z" fill="#4A76A8"/><path fill-rule="evenodd" clip-rule="evenodd" d="M29.377 22.037c.862.859 1.773 1.667 2.546 2.613.341.42.665.852.913 1.34.35.692.032 1.455-.576 1.496l-3.789-.002c-.977.083-1.756-.319-2.41-1-.526-.544-1.012-1.124-1.516-1.686a3.563 3.563 0 00-.681-.618c-.517-.343-.966-.237-1.262.313-.3.559-.369 1.178-.399 1.802-.04.908-.31 1.148-1.205 1.19-1.915.091-3.732-.204-5.42-1.19-1.488-.867-2.643-2.093-3.647-3.48-1.956-2.702-3.453-5.67-4.8-8.722-.303-.688-.08-1.057.663-1.07 1.236-.024 2.471-.022 3.708-.002.503.008.835.301 1.03.786.667 1.675 1.485 3.269 2.512 4.748.274.393.553.786.95 1.063.439.307.773.206.98-.294.131-.316.189-.656.218-.995.098-1.166.11-2.33-.061-3.49-.105-.726-.506-1.195-1.215-1.332-.362-.07-.309-.207-.133-.418.304-.364.591-.589 1.162-.589h4.28c.674.134.824.444.916 1.135l.004 4.848c-.007.268.13 1.061.604 1.24.378.125.628-.184.855-.428 1.025-1.11 1.756-2.42 2.41-3.777.29-.598.539-1.217.78-1.836.18-.46.46-.686.968-.676l4.12.004c.123 0 .246.002.364.022.695.121.885.426.67 1.116-.337 1.085-.995 1.989-1.637 2.897-.687.97-1.423 1.905-2.103 2.88-.627.89-.577 1.34.201 2.112z" fill="#FFFFFE"/></svg>
